icons/HeartBeat_2.svg

<svg width="24" height="24" viewBox="0 0 24 24" fill="none" xmlns="http://www.w3.org/2000/svg">
<path fill-rule="evenodd" clip-rule="evenodd" d="M9.3,3.24997c0.32179,0 0.60772,0.20527 0.7106,0.51017l4.6894,13.89446l1.9894,-5.8945c0.1029,-0.3049 0.3888,-0.5101 0.7106,-0.5101h3.6c0.4142,0 0.75,0.3358 0.75,0.75c0,0.4142 -0.3358,0.75 -0.75,0.75h-3.0616l-2.5278,7.4898c-0.1029,0.3049 -0.3888,0.5102 -0.7106,0.5102c-0.3218,0 -0.6077,-0.2053 -0.7106,-0.5102l-4.6894,-13.89446l-1.98938,5.89446c-0.1029,0.3049 -0.38883,0.5102 -0.71062,0.5102h-3.6c-0.41421,0 -0.75,-0.3358 -0.75,-0.75c0,-0.4142 0.33579,-0.75 0.75,-0.75h3.06156l2.52782,-7.48986c0.1029,-0.3049 0.38883,-0.51017 0.71062,-0.51017z" fill="#002B51"/>
</svg>

<svg width="24" height="24" viewBox="0 0 24 24" fill="none" xmlns="http://www.w3.org/2000/svg">
<path fill-rule="evenodd" clip-rule="evenodd" d="M9.3 3.24997C9.62179 3.24997 9.90772 3.45524 10.0106 3.76014L14.7 17.6546L16.6894 11.7601C16.7923 11.4552 17.0782 11.25 17.4 11.25H21C21.4142 11.25 21.75 11.5858 21.75 12C21.75 12.4142 21.4142 12.75 21 12.75H17.9384L15.4106 20.2398C15.3077 20.5447 15.0218 20.75 14.7 20.75C14.3782 20.75 14.0923 20.5447 13.9894 20.2398L9.3 6.34534L7.31062 12.2398C7.20772 12.5447 6.92179 12.75 6.6 12.75H3C2.58579 12.75 2.25 12.4142 2.25 12C2.25 11.5858 2.58579 11.25 3 11.25H6.06156L8.58938 3.76014C8.69228 3.45524 8.97821 3.24997 9.3 3.24997Z" fill="#002B51"/>
</svg>
